X:49
T:Morning Dew Reel, the
S:Bowing styles in Irish music was it
I:speed 300
M:4/4
K:D
|: ~E3B BAFD | EBEB ADFD | ~E3B BAFD | BcdB ADFA:|
|:B2eB fBeB | BcdB ADFA | B2eB fBeB | dcdB ADFA |
|:B2eB fBeB | BcdB ADFA | Bdef gfge | dcdB ADFA |
B2GB EBEB | B2GB ADFA | B2GA BEGA |dcdB | ADFA |
B2GA BEGA | B2GB ADFA | BAGF GABc | dcdB ADFD |
